X: 162
T: A xi li xi
L: 1/8
M: 2/4
K: C
d2e c [I:setbarnb 1]| 
d4 | 
d ec2 | 
d4 | 
d cA2 | 
c2A d | 
d cA2 | 
c4 | 
A d c d | 
A d c d | 
G2D2 | 
G2D2 | 
d2c A | 
G c A G | 
c2G A | 
c2z2 |]

@@@ Tune index: 8830
